X: 130027
M: 2/4
L: 1/16
K: Am
uE2 |\
efed cdec | d2G2G2 (cB) |\
efed c2(Bd) | c2A2A2z2 ||\
a2A2A2z2 | a2A2A2z2 |\
g2G2G2z2 |
g2G2G2z2 |\
a2A2a2A2 | g2G2g2G2 |\
a2(ef) edcB | c2A2A2z2 ||\
a2A2A2z2 | a2A2A2z2 |\
g2(GA) GABc | dedc B2E2 |\
efed c2(Bd) | c2A2A2 |]


